theme/static/images/social_icons/zulip.svg

<?xml version="1.0" encoding="UTF-8" standalone="no"?>
<svg
   xmlns:dc="http://purl.org/dc/elements/1.1/"
   xmlns:cc="http://creativecommons.org/ns#"
   xmlns:rdf="http://www.w3.org/1999/02/22-rdf-syntax-ns#"
   xmlns:svg="http://www.w3.org/2000/svg"
   xmlns="http://www.w3.org/2000/svg"
   xmlns:sodipodi="http://sodipodi.sourceforge.net/DTD/sodipodi-0.dtd"
   xmlns:inkscape="http://www.inkscape.org/namespaces/inkscape"
   inkscape:version="1.0 (4035a4fb49, 2020-05-01)"
   sodipodi:docname="zulip.svg"
   id="svg991"
   version="1.1"
   viewBox="0 0 40 40">
  <metadata
     id="metadata997">
    <rdf:RDF>
      <cc:Work
         rdf:about="">
        <dc:format>image/svg+xml</dc:format>
        <dc:type
           rdf:resource="http://purl.org/dc/dcmitype/StillImage" />
      </cc:Work>
    </rdf:RDF>
  </metadata>
  <defs
     id="defs995" />
  <sodipodi:namedview
     inkscape:current-layer="g989"
     inkscape:window-maximized="0"
     inkscape:window-y="0"
     inkscape:window-x="0"
     inkscape:cy="20"
     inkscape:cx="19.43958"
     inkscape:zoom="14.275"
     showgrid="false"
     id="namedview993"
     inkscape:window-height="768"
     inkscape:window-width="1366"
     inkscape:pageshadow="2"
     inkscape:pageopacity="0"
     guidetolerance="10"
     gridtolerance="10"
     objecttolerance="10"
     borderopacity="1"
     bordercolor="#666666"
     pagecolor="#ffffff" />
  <g
     id="g989"
     transform="translate(-297.14285,-466.64792)">
    <path
       transform="translate(297.14285,466.64792)"
       d="M 20 0.96875 A 19.030317 19.030317 0 0 0 0.96875 20 A 19.030317 19.030317 0 0 0 20 39.03125 A 19.030317 19.030317 0 0 0 39.03125 20 A 19.030317 19.030317 0 0 0 20 0.96875 z M 12.099609 10.5 L 26.300781 10.5 L 27.900391 14.400391 L 16.699219 26.300781 L 26.300781 26.300781 L 27.900391 29.5 L 13.699219 29.5 L 12.099609 25.599609 L 23.300781 13.699219 L 13.699219 13.699219 L 12.099609 10.5 z "
       style="fill:#ffffff"
       id="circle985" />
  </g>
</svg>

<?xml version="1.0" encoding="UTF-8"?>
<svg version="1.1" viewBox="0 0 40 40" xmlns="http://www.w3.org/2000/svg"><g transform="translate(-297.14 -466.65)"><path transform="translate(297.14 466.65)" d="m20 0.96875a19.03 19.03 0 0 0-19.031 19.031 19.03 19.03 0 0 0 19.031 19.031 19.03 19.03 0 0 0 19.031-19.031 19.03 19.03 0 0 0-19.031-19.031zm-7.9004 9.5312h14.201l1.5996 3.9004-11.201 11.9h9.6016l1.5996 3.1992h-14.201l-1.5996-3.9004 11.201-11.9h-9.6016l-1.5996-3.1992z" fill="#fff"/></g></svg>
